!!!COM: Johannes Brahms
!!!CNT: Deutscher
!!!TXO: Deutsche
!!!OTL: Erinnerung
!!!OPS: Op. 63
!!!ONM: No. 2
!!!LYR: Schenkendorf
!!!ONB: Original key: C Major
!!!ENC: Ayako Kataoka        
!!!EED: Leigh VanHandel
!!!YOR: C.F. Peters, Brahms Lieder fu2r eine Singstimme mit Klavierbegleitung, Band III, ausgabe fu2r tiefere Stimme
!!!ODT: 1874/
!!NB: Vocal melody and text only encoded.
**kern	**silbe
*clefG2	*
*k[f#c#g#]	*
*M3/4	*
*MM[andante]	*
!! tempo indication: Innig
=1	=1
2r	.
{4e	{Ihr
=2	=2
2e	wun-
4c#	-der-
=3	=3
2a	-scho2-
4e	-nen
=4	=4
2cc#	Au-
4b	-gen-
=5	=5
4b	-bli-
4a}	-cke,}
{4a	{die
=6	=6
2g#	Lieb-
4f#	-lich-
=7	=7
2e	-ste
4a	der
=8	=8
2g#	gan-
4f#	-zen
=9	=9
2e}	Welt}
{4e	{hat
=10	=10
2e	euch
4c#	mit
=11	=11
2a	ih-
4e	-rem
=12	=12
2cc#	ew-
4b	-gen
=13	=13
4b	Glu2-
4a}	-cke,}
{4ee	{mit
=14	=14
2dd	ih-
4cc#	-rem
=15	=15
2b	su2-
4f#	-ssen
=16	=16
(2.a	Licht
=17	=17
4dd	|
4b)	|
4g#	er-
=18	=18
2a}	-helt.}
4r	.
!!skippingm19
=20	=20
4r	.
4r	.
{4cc#	{Ihr
=21	=21
2b	Stel-
4a	-len,
=23	=23
2g#	ihr
4cc#	ge-
=24	=24
2b	-weih-
4a	-ten
=25	=25
4g#	Pla2t-
4b}	-ze,}
{4ee	{ihr
=26	=26
2ee	trugt
4ccn	ja
=27	=27
2gn	das
4e	ge-
=28	=28
2gn	-lieb-
4fn	-te
=29	=29
2e}	Bild,}
{4e	{was
=30	=30
2e	Wun-
4e	-der
=31	=31
2f#	habt
4f#	ihr,
=32	=32
2b	was
4b	fu2r
=33	=33
4dd	Scha2t-
4a}	-ze}
{4f#	{vor
=34	=34
2e	mei-
4e	-nen
=35	=35
2f#	Au-
4f#	-gen
=36	=36
[2.b	dort
=37	=37
2b]	|
4b	ent-
=38	=38
[2.dd	-hu2llt!
=39	=39
4dd]}	|}
4r	.
4r	.
!!skippingm40
=41	=41
4r	.
4r	.
{4e	{Ihr
=42	=42
2e	Ga2r-
4c#	-ten,
=43	=43
2a	all
4e	ihr
=44	=44
2cc#	gru2-
4b	-nen
=45	=45
4b	Hai-
4a}	ne,}
{4a	{du
=46	=46
2g#	Wein-
4f#	-berg
=47	=47
2e	in
4a	der
=48	=48
2g#	su2-
4f#	-ssen
=49	=49
2e}	Zier,}
{4e	{es
=50	=50
2e	nah-
4c#	-te
=51	=51
2a	sich
4e	die
=52	=52
2cc#	Heh-
4b}	-re,}
=53	=53
{4b	{Rei-
4a	-ne
4ee	in
=54	=54
2dd	Zu2ch-
4cc#	-ten
=55	=55
2b	gar
4f#	zu
=56	=56
(2.a	freund-
=57	=57
4dd	|
4b)	|
4g#	-lich
=58	=58
2a}	mir.}
4r	.
!!skippingm59
=60	=60
4r	.
4r	.
{4cc#	{Ihr
=61	=61
2b	Wor-
4a	-te,
=62	=62
2g#	die
4cc#	sie
=63	=63
2b	da
4a	ge-
=64	=64
4g#	spro-
4b}	-chen,}
{4ee	{du
=65	=65
2ee	scho2n-
4ccn	-stes,
=66	=66
2gn	halb-
4e	-ver-
=67	=67
2gn	-hauch-
4fn	-tes
=68	=68
2e}	Wort,}
{4e	{dein
=69	=69
2e	Zau-
4e	-ber-
=70	=70
2f#	-bann
4f#	wird
=71	=71
2b	nie
4b	ge-
=72	=72
4dd	-bro-
4a}	-chen,}
{4f#	{du
=73	=73
2e	Klingst
4e	und
=74	=74
2f#	wir-
4f#	-kest
=75	=75
[2.b	fort
=76	=76
2b]	|
4b	und
=77	=77
[2.dd	fort.
=78	=78
4dd]}	|}
4r	.
4r	.
!!skipping m. 79
=80	=80
4r	.
4r	.
{4e	{Ihr
=81	=81
2e	wun-
4c#	-der-
=82	=82
2a	-scho2-
4e	-nen
=83	=83
2cc#	Au-
4b	-gen-
=84	=84
4b	-bli-
4a}	-cke,}
{4a	{ihr
=85	=85
2g#	lacht
4f#	und
=86	=86
2e	lockt
4a	in
=87	=87
2g#	ew-
4f#	-gem
=88	=88
2e}	Reiz.}
{4e	{Ich
=89	=89
2e	schau-
4c#	-e
=90	=90
2a	sehn-
4e	-suchts-
=91	=91
2cc#	-voll
4b	zu-
=92	=92
4b	-ru2-
4a#}	-cke}
{4ee	{voll
=93	=93
2dd	Schmerz
4a#	und
=94	=94
2b	Lust
4fn	und
=95	=95
(2.a	Lie-
=96	=96
4dd	|
4b)	|
4g#	-bes-
=97	=97
2a}	-geiz.}
4r	.
*-	*-
